X:18
T: Rochdale Coconut Dance
M: 4/4
L: 1/4
K: G
 "Em"E/F/G/F/ EB| E/F/G/F/ EB|"Am"c A/c/ "Em"B G/B/ | "D"A/G/F/E/  "Bm"D/E/F/D/ | 
"Em"E/F/G/F/ EB| E/F/G/F/ EB|"Am"c A/c/ "Em"B G/B/ | [1"B7"A/G/ F"Em"E2:|  [2"B7"A/G/ F"Em"ED||
|: "G"G B/B/ GB| "D"A/G/F/G/  A/B/c/A/ |"G"G B/B/ GB| "A7"A/G/F/E/ "D"DD|
"G"G B/B/ GB| "D"A/G/F/G/  A/B/c/A/ | "G"B/d/B/G/  "D"A/c/A/F/ |"G"GBGD:| 

%%newpage

